src/assets/filled/SidebarTop.svg

<svg width="24" height="24" viewBox="0 0 24 24"  xmlns="http://www.w3.org/2000/svg">
<path d="M20.95 4.13C20.66 3.71 20.29 3.34 19.87 3.05C18.92 2.36 17.68 2 16.19 2H7.81003C4.37003 2 2.24003 3.94 2.03003 7.22H21.98C21.9 5.99 21.55 4.95 20.95 4.13Z" />
<path d="M2 16.1897C2 17.6797 2.36 18.9197 3.05 19.8697C3.34 20.2897 3.71 20.6597 4.13 20.9497C5.08 21.6397 6.32 21.9997 7.81 21.9997H16.19C19.83 21.9997 22 19.8297 22 16.1897V8.71973H2V16.1897ZM8.91 14.4397L11.47 11.8797C11.76 11.5897 12.24 11.5897 12.53 11.8797L15.09 14.4397C15.24 14.5897 15.31 14.7797 15.31 14.9697C15.31 15.1597 15.24 15.3497 15.09 15.4997C14.8 15.7897 14.32 15.7897 14.03 15.4997L12 13.4797L9.97 15.4997C9.68 15.7897 9.2 15.7897 8.91 15.4997C8.62 15.2097 8.62 14.7397 8.91 14.4397Z" />
</svg>

<?xml version="1.0" encoding="UTF-8"?>
<svg width="24" height="24" viewBox="0 0 24 24" xmlns="http://www.w3.org/2000/svg">
 <path d="m20.95 4.13c-0.29-0.42-0.66-0.79-1.08-1.08-0.95-0.69-2.19-1.05-3.68-1.05h-8.38c-3.44 0-5.57 1.94-5.78 5.22h19.95c-0.08-1.23-0.43-2.27-1.03-3.09z"/>
 <path d="m2 16.19c0 1.49 0.36 2.73 1.05 3.68 0.29 0.42 0.66 0.79 1.08 1.08 0.95 0.69 2.19 1.05 3.68 1.05h8.38c3.64 0 5.81-2.17 5.81-5.81v-7.47h-20v7.47zm6.91-1.75 2.56-2.56c0.29-0.29 0.77-0.29 1.06 0l2.56 2.56c0.15 0.15 0.22 0.34 0.22 0.53s-0.07 0.38-0.22 0.53c-0.29 0.29-0.77 0.29-1.06 0l-2.03-2.02-2.03 2.02c-0.29 0.29-0.77 0.29-1.06 0s-0.29-0.76 0-1.06z"/>
</svg>
